svg/blobs-icons/no-decorations/repeat.svg

<svg xmlns="http://www.w3.org/2000/svg" xmlns:xlink="http://www.w3.org/1999/xlink" preserveAspectRatio="xMidYMid" width="199" height="216" viewBox="0 0 199 216"><defs><style>.cls-3{fill:#ff3a2f}.cls-5{fill:#060606;opacity:.35}</style></defs><g id="group-16svg"><path d="M70.039 22.206s26.589.0 26.589.0c55.053.0 101.579 44.406 101.579 96.97.0 53.135-43.67 96.359-97.341 96.359-56.562.0-100.86-46.559-100.86-105.992C.006 107.003 2.07 104.947 4.602 104.947H31.824c2.55.0 4.597 2.056 4.597 4.596.0 52.628 33.29 71.383 64.445 71.383 32.456.0 60.926-29.637 60.926-63.411.0-31.728-29.843-58.535-65.164-58.535L70.996 58.203S70.039 22.206 70.039 22.206z" id="path-1" class="cls-3" fill-rule="evenodd"/><path d="M74.06 58.98s0 18.589.0 18.589C74.06 79.238 73.163 80.76 71.709 81.577 70.262 82.394 68.485 82.349 67.067 81.488L6.805 44.507C5.431 43.664 4.605 42.181 4.605 40.567 4.624 38.959 5.467 37.469 6.85 36.643L67.112.66C68.529-.193 70.307-.221 71.735.606c1.446.808 2.325 2.334 2.325 3.996V22.206s0 36.774.0 36.774z" id="path-2" class="cls-3" fill-rule="evenodd"/><path d="M81.718 58.529S91.514 22.206 91.514 22.206s-17.454.0-17.454.0.0 36.091.0 36.091S81.718 58.529 81.718 58.529z" id="path-3" class="cls-5" fill-rule="evenodd"/></g></svg>

<svg xmlns="http://www.w3.org/2000/svg" xmlns:xlink="http://www.w3.org/1999/xlink" preserveAspectRatio="xMidYMid" width="199" height="216" viewBox="0 0 199 216">
  <defs>
    <style>

      .cls-3 {
        fill: #ff3a2f;
      }

      .cls-5 {
        fill: #060606;
        opacity: 0.35;
      }
    </style>
  </defs>
  <g id="group-16svg">
    <path d="M70.039,22.206 C70.039,22.206 96.628,22.206 96.628,22.206 C151.681,22.206 198.207,66.612 198.207,119.176 C198.207,172.311 154.537,215.535 100.866,215.535 C44.304,215.535 0.006,168.976 0.006,109.543 C0.006,107.003 2.070,104.947 4.602,104.947 C4.602,104.947 31.824,104.947 31.824,104.947 C34.374,104.947 36.421,107.003 36.421,109.543 C36.421,162.171 69.711,180.926 100.866,180.926 C133.322,180.926 161.792,151.289 161.792,117.515 C161.792,85.787 131.949,58.980 96.628,58.980 C96.628,58.980 70.996,58.203 70.996,58.203 C70.996,58.203 70.039,22.206 70.039,22.206 Z" id="path-1" class="cls-3" fill-rule="evenodd"/>
    <path d="M74.060,58.980 C74.060,58.980 74.060,77.569 74.060,77.569 C74.060,79.238 73.163,80.760 71.709,81.577 C70.262,82.394 68.485,82.349 67.067,81.488 C67.067,81.488 6.805,44.507 6.805,44.507 C5.431,43.664 4.605,42.181 4.605,40.567 C4.624,38.959 5.467,37.469 6.850,36.643 C6.850,36.643 67.112,0.660 67.112,0.660 C68.529,-0.193 70.307,-0.221 71.735,0.606 C73.181,1.414 74.060,2.940 74.060,4.602 C74.060,4.602 74.060,22.206 74.060,22.206 C74.060,22.206 74.060,58.980 74.060,58.980 Z" id="path-2" class="cls-3" fill-rule="evenodd"/>
    <path d="M81.718,58.529 C81.718,58.529 91.514,22.206 91.514,22.206 C91.514,22.206 74.060,22.206 74.060,22.206 C74.060,22.206 74.060,58.297 74.060,58.297 C74.060,58.297 81.718,58.529 81.718,58.529 Z" id="path-3" class="cls-5" fill-rule="evenodd"/>
  </g>
</svg>
